dist/img/svg/plug_icon.svg

<svg xmlns="http://www.w3.org/2000/svg" viewBox="0 0 154.89 155"><path d="M56 70.35l14.29-14.29 28.59 28.59-14.29 14.3a20.105 20.105 0 01-14.3 5.91c-5.4 0-10.48-2.1-14.29-5.91-7.89-7.89-7.89-20.71 0-28.6m-4.38 80.22A77.4 77.4 0 0077.5 155c20.68 0 40.14-8.08 54.78-22.75 14.61-14.62 22.64-34.1 22.61-54.85-.03-20.75-8.1-40.21-22.75-54.8C117.51 8.02 98.09 0 77.44 0 56.75 0 37.29 8.06 22.65 22.7 1.67 43.68-5.5 75.32 4.36 103.32l.12.33c3.76 10.5 13.45 17.29 24.7 17.29 6.95 0 13.51-2.73 18.47-7.69l5.55-5.56 1.36.9a28.631 28.631 0 0015.74 4.68c7.65 0 14.84-2.97 20.24-8.37l17.27-17.27c.8-.8 1.24-1.86 1.24-2.98 0-1.13-.44-2.18-1.24-2.98l-7.14-7.14 18.49-18.48c.79-.8 1.23-1.86 1.23-2.98 0-1.13-.43-2.18-1.23-2.98-.8-.8-1.85-1.23-2.98-1.23-1.12 0-2.18.43-2.97 1.23L94.72 68.58l-8.36-8.36 18.74-18.73c.79-.8 1.23-1.85 1.23-2.98 0-1.12-.44-2.18-1.23-2.97-.8-.8-1.86-1.24-2.98-1.24-1.12 0-2.18.44-2.98 1.23L80.41 54.27l-7.14-7.14c-.8-.8-1.85-1.24-2.98-1.24-1.12 0-2.18.44-2.98 1.24L50.04 64.4c-9.56 9.56-11.11 24.69-3.68 35.98l.89 1.36-5.56 5.55c-3.36 3.36-7.84 5.21-12.61 5.21-7.58.01-14.13-4.59-16.67-11.7l-.1-.27C3.51 75.57 9.9 47.36 28.6 28.65 41.66 15.6 59.01 8.41 77.45 8.41c18.39 0 35.7 7.16 48.75 20.15 13.05 13 20.24 30.35 20.27 48.85.02 18.5-7.13 35.86-20.15 48.89-13.05 13.07-30.39 20.27-48.83 20.27h-.01c-7.89 0-15.65-1.32-23.06-3.94a4.212 4.212 0 00-5.37 2.58c-.38 1.06-.32 2.2.17 3.21a4.165 4.165 0 002.4 2.15"/></svg>

<svg xmlns="http://www.w3.org/2000/svg" viewBox="0 0 154.89 155">
	<style type="text/css">
		.st0{fill:#000000;}
	</style>
	<path class="st0" d="M56,70.35L70.29,56.06L98.88,84.65L84.59,98.95C80.77,102.76 75.7,104.86 70.29,104.86C64.89,104.86 59.81,102.76 56,98.95C48.11,91.06 48.11,78.24 56,70.35M51.62,150.57C59.93,153.51 68.64,155 77.5,155C98.18,155 117.64,146.92 132.28,132.25C146.89,117.63 154.92,98.15 154.89,77.4C154.86,56.65 146.79,37.19 132.14,22.6C117.51,8.02 98.09,0 77.44,0C56.75,0 37.29,8.06 22.65,22.7C1.67,43.68 -5.5,75.32 4.36,103.32L4.48,103.65C8.24,114.15 17.93,120.94 29.18,120.94C36.13,120.94 42.69,118.21 47.65,113.25L53.2,107.69L54.56,108.59C59.23,111.65 64.67,113.27 70.3,113.27C77.95,113.27 85.14,110.3 90.54,104.9L107.81,87.63C108.61,86.83 109.05,85.77 109.05,84.65C109.05,83.52 108.61,82.47 107.81,81.67L100.67,74.53L119.16,56.05C119.95,55.25 120.39,54.19 120.39,53.07C120.39,51.94 119.96,50.89 119.16,50.09C118.36,49.29 117.31,48.86 116.18,48.86C115.06,48.86 114,49.29 113.21,50.09L94.72,68.58L86.36,60.22L105.1,41.49C105.89,40.69 106.33,39.64 106.33,38.51C106.33,37.39 105.89,36.33 105.1,35.54C104.3,34.74 103.24,34.3 102.12,34.3C101,34.3 99.94,34.74 99.14,35.53L80.41,54.27L73.27,47.13C72.47,46.33 71.42,45.89 70.29,45.89C69.17,45.89 68.11,46.33 67.31,47.13L50.04,64.4C40.48,73.96 38.93,89.09 46.36,100.38L47.25,101.74L41.69,107.29C38.33,110.65 33.85,112.5 29.08,112.5C21.5,112.51 14.95,107.91 12.41,100.8L12.31,100.53C3.51,75.57 9.9,47.36 28.6,28.65C41.66,15.6 59.01,8.41 77.45,8.41C95.84,8.41 113.15,15.57 126.2,28.56C139.25,41.56 146.44,58.91 146.47,77.41C146.49,95.91 139.34,113.27 126.32,126.3C113.27,139.37 95.93,146.57 77.49,146.57L77.48,146.57C69.59,146.57 61.83,145.25 54.42,142.63C53.97,142.47 53.5,142.39 53.02,142.39C51.24,142.39 49.64,143.52 49.05,145.21C48.67,146.27 48.73,147.41 49.22,148.42C49.71,149.44 50.56,150.2 51.62,150.57"/>
</svg>
